lib/brands/icons/dynamics-crm.svg

<svg xmlns="http://www.w3.org/2000/svg" fill="none" aria-hidden="true" viewBox="0 0 48 48"><g id="dynamics-crm-Icon"><path id="Vector" fill="url(#paint0_linear_94_19209)" d="M6 40.7011C6 39.8231 6 38.9868 6 38.1924C6 38.0252 6.12544 37.8997 6.25087 37.7743C9.09408 34.7639 11.6864 31.5862 13.9443 28.1158C17.5819 22.5548 20.5087 16.7011 22.2648 10.2621C22.5575 9.21681 22.7666 8.17152 23.0174 7.12622C23.8537 7.16803 23.8537 7.16803 23.8537 7.96246C23.8537 16.3248 23.8537 24.6454 23.8537 33.0078C23.8537 33.7186 23.8118 33.7604 23.101 33.844C20.2578 34.1367 17.4983 34.7638 14.7805 35.7255C12.5226 36.5618 10.3902 37.6071 8.38328 38.945C8.25784 39.0287 8.1324 39.1123 8.04878 39.2795C8.71777 38.9032 9.34495 38.5687 10.0139 38.1924C13.9861 36.1436 18.2509 34.9311 22.6829 34.513C23.101 34.4712 23.5192 34.4294 23.8955 34.4294C24.3136 34.3875 24.5226 34.2621 24.4808 33.8022C24.439 31.4607 24.4808 29.0774 24.4808 26.736C24.4808 26.3597 24.6063 26.1088 24.8571 25.8161C28.3275 22.1367 30.9199 17.9137 32.885 13.3144C32.9268 13.2307 32.9686 13.1053 33.0105 13.0217C33.7631 13.1471 33.7631 13.1471 33.7631 13.8579C33.7631 21.175 33.7631 28.4921 33.7631 35.8091C33.7631 36.0182 33.7631 36.1855 33.7631 36.4781C33.3031 36.5199 32.8014 36.6036 32.3833 36.5199C24.439 35.0565 16.7038 35.6419 9.26132 38.9868C8.80139 39.1959 8.34146 39.4468 7.92335 39.7813C8.09059 39.7395 8.21603 39.6558 8.38328 39.614C13.5679 37.4398 19.0035 36.2273 24.6481 36.2273C27.6167 36.2273 30.5854 36.5618 33.4704 37.3144C34.1812 37.4816 34.4739 37.3144 34.4739 36.5618C34.4739 32.9659 34.4739 29.3701 34.4739 25.7743C34.4739 25.398 34.5575 25.1889 34.8502 24.8963C37.108 22.8057 39.324 20.7151 41.5819 18.5827C41.9164 18.6245 42 18.9172 42 19.3771C42 26.276 42 33.175 42 40.074C42 40.7429 41.6237 41.0356 40.9547 40.7848C38.3624 39.9067 35.7282 39.1959 33.0105 38.8196C30.5854 38.4851 28.1603 38.1924 25.6934 38.067C20.007 37.7743 14.3624 38.4433 8.88502 39.9485C8.1324 40.1576 7.37979 40.4084 6.62718 40.6593C6.41812 40.6175 6.25087 40.6593 6 40.7011Z"/></g><defs><linearGradient id="paint0_linear_94_19209" x1="6.01422" x2="42.0296" y1="23.9345" y2="23.9345" gradientUnits="userSpaceOnUse"><stop stop-color="#00DDFF"/><stop offset="1" stop-color="#005FED"/></linearGradient></defs></svg>

<svg xmlns="http://www.w3.org/2000/svg" fill="none" aria-hidden="true" viewBox="0 0 48 48"><path fill="url(#a)" d="M6 40.701v-2.509c0-.167.125-.292.25-.418 2.844-3.01 5.436-6.188 7.694-9.658 3.638-5.561 6.565-11.415 8.32-17.854.294-1.045.503-2.09.753-3.136.837.042.837.042.837.836v25.046c0 .71-.042.752-.753.836a35.79 35.79 0 0 0-8.32 1.881c-2.258.837-4.39 1.882-6.398 3.22-.125.084-.25.167-.334.334.669-.376 1.296-.71 1.965-1.087 3.972-2.048 8.237-3.26 12.669-3.679.418-.042.836-.084 1.212-.084.419-.041.628-.167.586-.627-.042-2.341 0-4.725 0-7.066 0-.376.125-.627.376-.92 3.47-3.68 6.063-7.902 8.028-12.502.042-.083.084-.209.126-.292.752.125.752.125.752.836v22.621c-.46.04-.962.125-1.38.04-7.944-1.462-15.68-.877-23.122 2.468-.46.209-.92.46-1.338.794.168-.041.293-.125.46-.167 5.185-2.174 10.62-3.387 16.265-3.387 2.969 0 5.937.335 8.822 1.087.711.168 1.004 0 1.004-.752V25.774c0-.376.084-.585.376-.878a933.34 933.34 0 0 0 6.732-6.313c.334.042.418.334.418.794v20.697c0 .669-.376.962-1.045.71-2.593-.877-5.227-1.588-7.944-1.964-2.426-.335-4.85-.628-7.318-.753-5.686-.293-11.33.376-16.808 1.882-.753.209-1.505.46-2.258.71-.209-.041-.376 0-.627.042Z"/><defs><linearGradient id="a" x1="6.014" x2="42.03" y1="23.934" y2="23.934" gradientUnits="userSpaceOnUse"><stop stop-color="#0DF"/><stop offset="1" stop-color="#005FED"/></linearGradient></defs></svg>
